src/lib/packages/icons/src/assets/line/mortar-pestle.svg

<svg width="24" height="24" viewBox="0 0 24 24" fill="none" xmlns="http://www.w3.org/2000/svg">
<path d="M21 9.25H20H17.149L18.5179 7.70801C18.6649 7.73501 18.821 7.749 18.983 7.75C18.99 7.75 18.996 7.75 19.002 7.75C20.15 7.75 21.1191 7.11509 21.5341 6.09009C21.9741 5.00209 21.738 3.83001 20.917 3.03101C20.096 2.23101 18.915 2.02803 17.833 2.49903C16.87 2.91803 16.2501 3.90088 16.2531 5.02588L10.698 9.25H4H3C2.586 9.25 2.25 9.586 2.25 10C2.25 10.414 2.586 10.75 3 10.75H3.30103C3.55403 14.345 5.18501 17.0531 7.91101 18.3491C7.66601 18.8261 7.42106 19.4951 7.33606 20.3621C7.30106 20.7191 7.41796 21.0761 7.65796 21.3411C7.89296 21.6011 8.229 21.75 8.578 21.75H15.4301C15.7801 21.75 16.115 21.601 16.35 21.342C16.59 21.077 16.707 20.72 16.672 20.363C16.587 19.496 16.342 18.8261 16.097 18.3501C18.816 17.0561 20.444 14.348 20.699 10.751H21C21.414 10.751 21.75 10.415 21.75 10.001C21.75 9.58698 21.414 9.25 21 9.25ZM17.1591 6.22095C17.5361 5.93495 17.752 5.49398 17.75 5.00098C17.749 4.49698 18.017 4.05503 18.432 3.87403C18.951 3.64703 19.489 3.73298 19.87 4.10498C20.251 4.47598 20.352 5.0071 20.142 5.5271C19.958 5.9801 19.533 6.24903 19.002 6.24903C18.941 6.25303 18.8551 6.24396 18.7841 6.23096C18.3151 6.14696 17.821 6.32111 17.473 6.70411L15.1479 9.24903H13.174L17.1591 6.22095ZM8.86096 20.25C8.97896 19.489 9.24497 19.007 9.41797 18.75H14.588C14.764 19.009 15.029 19.491 15.146 20.25H8.86096ZM14.816 17.25H9.19299C6.58599 16.326 5.03703 14.04 4.78503 10.75H19.215C18.96 14.043 17.414 16.33 14.816 17.25Z" fill="currentColor"/>
</svg>

<svg xmlns="http://www.w3.org/2000/svg" width="24" height="24" fill="none"><path fill="currentColor" d="M21 9.25h-3.851l1.369-1.542c.147.027.303.041.465.042h.019c1.148 0 2.117-.635 2.532-1.66.44-1.088.204-2.26-.617-3.059-.821-.8-2.002-1.003-3.084-.532-.963.419-1.583 1.402-1.58 2.527L10.698 9.25H3a.75.75 0 0 0 0 1.5h.301c.253 3.595 1.884 6.303 4.61 7.6a5.57 5.57 0 0 0-.575 2.012c-.035.357.082.714.322.98.235.26.571.408.92.408h6.852c.35 0 .685-.149.92-.408.24-.265.357-.622.322-.979a5.563 5.563 0 0 0-.575-2.013c2.719-1.294 4.347-4.002 4.602-7.599H21a.75.75 0 0 0 0-1.501Zm-3.84-3.029a1.5 1.5 0 0 0 .59-1.22c-.001-.504.267-.946.682-1.127.519-.227 1.057-.141 1.438.231.381.371.482.902.272 1.422-.184.453-.609.722-1.14.722a.99.99 0 0 1-.218-.018c-.469-.084-.963.09-1.311.473L15.148 9.25h-1.974l3.985-3.028ZM8.86 20.25c.118-.761.384-1.243.557-1.5h5.17c.176.259.441.741.558 1.5H8.861Zm5.955-3H9.193c-2.607-.924-4.156-3.21-4.408-6.5h14.43c-.255 3.293-1.801 5.58-4.399 6.5Z"/></svg>
